X: 69
M:6/8
L:1/8
K:G
eee dBd|e/2f/2ge dBA|BGG dBG|EAA A2:|
|:e|a3 bag|eaa ged|BAA BGG|BcA BGG|
a2 a bag|eaa ged|BAA dBG|EAA A2:||

